X: 39153
T: Sweets Of May, The
R: jig
M: 6/8
K: Gmajor
|:d2 c|B2 G AFD|G3 G2 A|B2 G GAB|c3 d2 c|
BAG AFD|GAG G2 c|B2 G AFD|G3:|
|:F2 G|A2 A A2 G|E2 F G3|ABA c2 d|e2 d c2 B|
ABA AB/A/G|E2 F G3|A2 A BAG|A3:|
|:AA/B/c|d3 d3|D3 D3|c3 c3|D3 DEF|
G2 D G2 A|B2 G B2 c|d2 d DEF|G3:|

